X:1138
T:Moorings.
M:C
L:1/8
Q:1/2=96
Z:Jack Campin * www.campin.me.uk * 2009
K:D
A2|fdcB    ge```dc  |f2d2    d2fg|afed  bgfe|d'2a2  z2
ag|fdfa {b}a3     g |fdfa {b}a3 g|fdcd  cBge|d2^c2  z2
ed|ceac'   e2   b^g |a2A2    z2a2|agfe ^dfga|bg`af  g3
g |gfed    ce```fg  |afd'4     a2|babf  gfgB|c4 {de}A2
de|fdcB    ge```dc  |f2d2    d2eg|afed  bgfe|d'2a2  z2
ag|fdfa    a2   ag  |fdfa    B2cd|efge  d2c2|f2 a2  z2
af|b2d'2   z2 (3c'bg|f2a2    b3 f|gabe  dcBA|f2 d2  d2|]

